assets/img/icons/icon_instagram.svg

<svg width="24" height="24" viewBox="0 0 24 24" fill="none" xmlns="http://www.w3.org/2000/svg">
<path d="M7.67994 1.44043C4.23834 1.44043 1.43994 4.23883 1.43994 7.68043V16.3204C1.43994 19.762 4.23834 22.5604 7.67994 22.5604H16.3199C19.7615 22.5604 22.5599 19.762 22.5599 16.3204V7.68043C22.5599 4.23883 19.7615 1.44043 16.3199 1.44043H7.67994ZM17.7599 5.28043C18.2879 5.28043 18.7199 5.71243 18.7199 6.24043C18.7199 6.76843 18.2879 7.20043 17.7599 7.20043C17.2319 7.20043 16.7999 6.76843 16.7999 6.24043C16.7999 5.71243 17.2319 5.28043 17.7599 5.28043ZM11.9999 6.72043C14.9135 6.72043 17.2799 9.08683 17.2799 12.0004C17.2799 14.914 14.9135 17.2804 11.9999 17.2804C9.08634 17.2804 6.71994 14.914 6.71994 12.0004C6.71994 9.08683 9.08634 6.72043 11.9999 6.72043ZM11.9999 7.68043C9.61914 7.68043 7.67994 9.61963 7.67994 12.0004C7.67994 14.3812 9.61914 16.3204 11.9999 16.3204C14.3807 16.3204 16.3199 14.3812 16.3199 12.0004C16.3199 9.61963 14.3807 7.68043 11.9999 7.68043Z" fill="#FFD600"/>
</svg>

<svg width="24" height="24" fill="none" xmlns="http://www.w3.org/2000/svg"><path d="M7.68 1.44a6.246 6.246 0 00-6.24 6.24v8.64a6.246 6.246 0 006.24 6.24h8.64a6.246 6.246 0 006.24-6.24V7.68a6.246 6.246 0 00-6.24-6.24H7.68zm10.08 3.84c.528 0 .96.432.96.96s-.432.96-.96.96a.963.963 0 01-.96-.96c0-.528.432-.96.96-.96zM12 6.72A5.283 5.283 0 0117.28 12 5.283 5.283 0 0112 17.28 5.283 5.283 0 016.72 12 5.283 5.283 0 0112 6.72zm0 .96c-2.38 0-4.32 1.94-4.32 4.32 0 2.381 1.94 4.32 4.32 4.32 2.38 0 4.32-1.939 4.32-4.32 0-2.38-1.94-4.32-4.32-4.32z" fill="#FFD600"/></svg>
